dist/images/icons/icon-timer.svg

<svg width="34" height="35" viewBox="0 0 34 35" fill="none" xmlns="http://www.w3.org/2000/svg">
<g clip-path="url(#clip0_669_850)">
<path d="M31.7543 12.911L32.7503 11.915C33.0383 11.6272 33.1969 11.2443 33.1969 10.8372C33.1969 10.4301 33.0383 10.0472 32.7504 9.75936L31.6096 8.61857C31.3217 8.3307 30.9389 8.17212 30.5318 8.17212C30.1246 8.17212 29.7418 8.3307 29.454 8.61857L28.4579 9.6146C27.1434 8.70915 25.6517 8.04349 24.046 7.68138V6.20922H24.6521C25.4727 6.20922 26.1403 5.54158 26.1403 4.721V2.65059C26.1403 1.82994 25.4727 1.16229 24.6521 1.16229H17.8004C16.9798 1.16229 16.3122 1.82994 16.3122 2.65059V4.72093C16.3122 5.54151 16.9798 6.20916 17.8004 6.20916H18.4064V7.68543C16.8081 8.04854 15.3231 8.71267 14.0137 9.61453L13.0177 8.61851C12.7299 8.33063 12.347 8.17206 11.94 8.17206C11.5327 8.17206 11.15 8.33063 10.8621 8.61851L9.72132 9.7593C9.12706 10.3536 9.12706 11.3206 9.72132 11.915L9.8979 12.0915H5.19077C4.82407 12.0915 4.52671 12.3888 4.52671 12.7556C4.52671 13.1224 4.82407 13.4197 5.19077 13.4197H10.3845C9.88966 14.2166 9.48 15.0715 9.16863 15.9721H0.664061C0.297367 15.9721 0 16.2694 0 16.6362C0 17.0029 0.297367 17.3002 0.664061 17.3002H8.78898C8.60165 18.1239 8.4942 18.9775 8.47521 19.8527H4.24999C3.8833 19.8527 3.58593 20.15 3.58593 20.5168C3.58593 20.8835 3.8833 21.1808 4.24999 21.1808H8.51492C8.58671 22.0596 8.74801 22.9134 8.98946 23.7333H3.32031C2.95361 23.7333 2.65624 24.0306 2.65624 24.3973C2.65624 24.7641 2.95361 25.0614 3.32031 25.0614H9.46181C11.3938 29.6598 15.9436 32.8973 21.2358 32.8973C28.274 32.8973 34 27.1713 34 20.1331C34 17.4544 33.1699 14.9662 31.7543 12.911ZM30.3931 9.55769C30.4406 9.51021 30.4947 9.50025 30.5318 9.50025C30.5689 9.50025 30.623 9.51021 30.6705 9.55769L31.8113 10.6985C31.8588 10.746 31.8688 10.8001 31.8688 10.8372C31.8688 10.8743 31.8588 10.9284 31.8112 10.9759L30.9382 11.849C30.5031 11.3402 30.0288 10.8659 29.52 10.4308L30.3931 9.55769ZM17.6403 4.721V2.65059C17.6403 2.56227 17.7122 2.49042 17.8004 2.49042H24.6521C24.7403 2.49042 24.8122 2.56227 24.8122 2.65059V4.72093C24.8122 4.80925 24.7403 4.88104 24.6521 4.88104H23.382H19.0704H17.8004C17.7122 4.8811 17.6403 4.80925 17.6403 4.721ZM19.7345 6.20922H22.7179V7.45547C22.2315 7.39896 21.7372 7.36894 21.2359 7.36894C20.7279 7.36894 20.2272 7.39969 19.7346 7.45766L19.7345 6.20922ZM10.6604 10.6984L11.8012 9.55762C11.8486 9.51014 11.9028 9.50018 11.9399 9.50018C11.9769 9.50018 12.0311 9.51014 12.0786 9.55762L12.9516 10.4307C12.4428 10.8658 11.9686 11.3401 11.5335 11.8489L10.6604 10.9759C10.5839 10.8994 10.5839 10.7749 10.6604 10.6984ZM21.2358 31.5691C14.93 31.5691 9.79975 26.4389 9.79975 20.1331C9.79975 13.8272 14.93 8.697 21.2358 8.697C27.5417 8.697 32.6719 13.8272 32.6719 20.1331C32.6719 26.4389 27.5417 31.5691 21.2358 31.5691Z" fill="black"/>
<path d="M25.6188 14.8109L22.4797 17.95C22.1126 17.74 21.6881 17.6193 21.2358 17.6193C19.8497 17.6193 18.722 18.7469 18.722 20.1331C18.722 21.5192 19.8497 22.6468 21.2358 22.6468C22.6219 22.6468 23.7495 21.5192 23.7495 20.1331C23.7495 19.6807 23.6288 19.2562 23.4188 18.8892L26.5579 15.7501C26.8172 15.4907 26.8172 15.0703 26.5579 14.8109C26.2985 14.5516 25.8782 14.5516 25.6188 14.8109ZM21.2358 21.3188C20.582 21.3188 20.0502 20.7869 20.0502 20.1331C20.0502 19.4794 20.5821 18.9475 21.2358 18.9475C21.8895 18.9475 22.4214 19.4794 22.4214 20.1331C22.4214 20.7869 21.8896 21.3188 21.2358 21.3188Z" fill="black"/>
<path d="M21.2361 11.5234C21.4107 11.5234 21.5821 11.4524 21.7055 11.3289C21.829 11.2054 21.9001 11.034 21.9001 10.8594C21.9001 10.6847 21.8291 10.5134 21.7055 10.3899C21.5821 10.2664 21.4107 10.1953 21.2361 10.1953C21.0614 10.1953 20.8901 10.2664 20.7666 10.3899C20.6431 10.5134 20.572 10.6847 20.572 10.8594C20.572 11.0347 20.643 11.2054 20.7666 11.3289C20.8902 11.4524 21.0614 11.5234 21.2361 11.5234Z" fill="black"/>
<path d="M21.2361 28.7426C21.0614 28.7426 20.8901 28.8136 20.7666 28.9371C20.6431 29.0606 20.572 29.232 20.572 29.4066C20.572 29.5819 20.643 29.7526 20.7666 29.8761C20.8901 30.0003 21.0614 30.0707 21.2361 30.0707C21.4107 30.0707 21.5821 30.0003 21.7055 29.8761C21.829 29.7526 21.9001 29.5813 21.9001 29.4066C21.9001 29.232 21.8291 29.0606 21.7055 28.9371C21.5821 28.8136 21.4107 28.7426 21.2361 28.7426Z" fill="black"/>
<path d="M14.6785 12.9113C14.5038 12.9113 14.3325 12.9823 14.209 13.1058C14.0855 13.2293 14.0144 13.4007 14.0144 13.5753C14.0144 13.7506 14.0854 13.9213 14.209 14.0455C14.3325 14.169 14.5038 14.2394 14.6785 14.2394C14.8531 14.2394 15.0244 14.169 15.1479 14.0455C15.2714 13.9213 15.3425 13.7506 15.3425 13.5753C15.3425 13.4007 15.2715 13.23 15.1479 13.1058C15.0244 12.9823 14.8531 12.9113 14.6785 12.9113Z" fill="black"/>
<path d="M27.7937 26.0265C27.6183 26.0265 27.4477 26.0975 27.3235 26.2211C27.2 26.3446 27.1296 26.5159 27.1296 26.6906C27.1296 26.8652 27.2 27.0365 27.3235 27.16C27.4477 27.2836 27.6183 27.3546 27.7937 27.3546C27.9683 27.3546 28.1397 27.2836 28.2631 27.16C28.3866 27.0365 28.4578 26.8652 28.4578 26.6906C28.4578 26.5159 28.3867 26.3446 28.2631 26.2211C28.1397 26.0975 27.9683 26.0265 27.7937 26.0265Z" fill="black"/>
<path d="M14.6785 26.0265C14.5038 26.0265 14.3325 26.0975 14.209 26.2211C14.0855 26.3446 14.0144 26.5159 14.0144 26.6906C14.0144 26.8652 14.0854 27.0365 14.209 27.16C14.3326 27.2836 14.5038 27.3546 14.6785 27.3546C14.8531 27.3546 15.0244 27.2836 15.1479 27.16C15.2714 27.0365 15.3425 26.8652 15.3425 26.6906C15.3425 26.5159 15.2715 26.3446 15.1479 26.2211C15.0244 26.0975 14.8531 26.0265 14.6785 26.0265Z" fill="black"/>
<path d="M11.9624 19.4689C11.7871 19.4689 11.6164 19.5399 11.4929 19.6634C11.3688 19.787 11.2983 19.9583 11.2983 20.1329C11.2983 20.3076 11.3688 20.4789 11.4929 20.6024C11.6164 20.7266 11.7872 20.797 11.9624 20.797C12.1371 20.797 12.3084 20.7266 12.4319 20.6024C12.5553 20.4789 12.6265 20.3076 12.6265 20.1329C12.6265 19.9583 12.5554 19.787 12.4319 19.6634C12.3084 19.5399 12.1371 19.4689 11.9624 19.4689Z" fill="black"/>
<path d="M30.9791 19.6634C30.8556 19.5399 30.6843 19.4689 30.5096 19.4689C30.3343 19.4689 30.1637 19.5399 30.0402 19.6634C29.9167 19.787 29.8456 19.9583 29.8456 20.1329C29.8456 20.3082 29.9166 20.4789 30.0402 20.6024C30.1637 20.7259 30.335 20.797 30.5096 20.797C30.6843 20.797 30.8556 20.7259 30.9791 20.6024C31.1026 20.4789 31.1737 20.3076 31.1737 20.1329C31.1736 19.9583 31.1026 19.787 30.9791 19.6634Z" fill="black"/>
<path d="M0.664062 23.7335C0.489414 23.7335 0.318086 23.8039 0.19457 23.9274C0.0710547 24.0516 0 24.2223 0 24.3976C0 24.5722 0.0709883 24.7429 0.19457 24.8671C0.318086 24.9906 0.489414 25.0616 0.664062 25.0616C0.838711 25.0616 1.01004 24.9906 1.13349 24.8671C1.257 24.7436 1.32812 24.5722 1.32812 24.3976C1.32812 24.2223 1.25707 24.0509 1.13349 23.9274C1.01004 23.8039 0.838711 23.7335 0.664062 23.7335Z" fill="black"/>
<path d="M30.3142 18.1168C30.6657 18.012 30.8658 17.6422 30.761 17.2907C30.2915 15.7154 29.4251 14.2658 28.2553 13.0985C27.0854 11.9311 25.6337 11.0677 24.057 10.6018C23.7054 10.4978 23.336 10.6986 23.232 11.0503C23.128 11.402 23.3289 11.7714 23.6807 11.8754C26.4826 12.7035 28.6537 14.8698 29.4882 17.67C29.5741 17.9582 29.8382 18.1445 30.1243 18.1445C30.1871 18.1446 30.251 18.1356 30.3142 18.1168Z" fill="black"/>
</g>
<defs>
<clipPath id="clip0_669_850">
<rect width="34" height="34" fill="white" transform="translate(0 0.0297852)"/>
</clipPath>
</defs>
</svg>

<svg width="34" height="35" fill="none" xmlns="http://www.w3.org/2000/svg"><g clip-path="url(#clip0_669_850)" fill="#000"><path d="M31.754 12.911l.996-.996c.288-.288.447-.67.447-1.078 0-.407-.159-.79-.447-1.078l-1.14-1.14a1.514 1.514 0 00-1.078-.447c-.407 0-.79.159-1.078.447l-.996.996a12.7 12.7 0 00-4.412-1.934V6.21h.606a1.49 1.49 0 001.488-1.488v-2.07a1.49 1.49 0 00-1.488-1.489H17.8a1.49 1.49 0 00-1.488 1.489v2.07c0 .82.668 1.488 1.488 1.488h.606v1.476a12.703 12.703 0 00-4.392 1.93l-.996-.996a1.514 1.514 0 00-1.078-.447c-.407 0-.79.159-1.078.447l-1.14 1.14a1.526 1.526 0 000 2.156l.176.177H5.19a.664.664 0 000 1.328h5.193a12.713 12.713 0 00-1.215 2.552H.664a.664.664 0 000 1.328H8.79a12.748 12.748 0 00-.314 2.553H4.25a.664.664 0 000 1.328h4.265c.072.879.233 1.732.474 2.552H3.32a.664.664 0 000 1.328h6.142c1.932 4.599 6.482 7.836 11.774 7.836C28.274 32.897 34 27.171 34 20.133c0-2.679-.83-5.167-2.246-7.222zm-1.36-3.353a.192.192 0 01.138-.058c.037 0 .091.01.139.058l1.14 1.14a.192.192 0 01.058.14c0 .036-.01.09-.058.138l-.873.873c-.435-.509-.91-.983-1.418-1.418l.873-.873zM17.64 4.72V2.65a.16.16 0 01.16-.16h6.852a.16.16 0 01.16.16v2.07a.16.16 0 01-.16.16H17.8a.16.16 0 01-.16-.16zm2.095 1.488h2.983v1.246a12.835 12.835 0 00-2.983.003V6.209zM10.66 10.7l1.141-1.141a.192.192 0 01.139-.058c.037 0 .091.01.139.058l.873.873c-.51.435-.983.91-1.418 1.418l-.874-.873a.196.196 0 010-.278zm10.576 20.87C14.93 31.57 9.8 26.44 9.8 20.133S14.93 8.697 21.236 8.697s11.436 5.13 11.436 11.436-5.13 11.436-11.436 11.436z"/><path d="M25.619 14.81l-3.14 3.14a2.498 2.498 0 00-1.243-.33 2.517 2.517 0 00-2.514 2.513 2.517 2.517 0 002.514 2.514 2.516 2.516 0 002.514-2.514c0-.452-.121-.877-.331-1.244l3.139-3.139a.664.664 0 00-.94-.94zm-4.383 6.509a1.187 1.187 0 01-1.186-1.186 1.187 1.187 0 012.371 0c0 .654-.531 1.186-1.185 1.186zm0-9.796a.669.669 0 00.47-.194.67.67 0 00.194-.47.669.669 0 00-.664-.664.67.67 0 00-.47.195.668.668 0 00.47 1.133zm0 17.22a.669.669 0 00-.47.194.668.668 0 00.47 1.134.666.666 0 00.47-1.134.669.669 0 00-.47-.194zm-6.558-15.832a.669.669 0 00-.469.195.67.67 0 00-.195.47.67.67 0 00.195.47.668.668 0 00.939 0 .67.67 0 00.194-.47.67.67 0 00-.194-.47.669.669 0 00-.47-.195zm13.116 13.115a.67.67 0 00-.47.195.668.668 0 000 .939.668.668 0 001.134-.47.669.669 0 00-.664-.664zm-13.116 0a.669.669 0 00-.664.665.669.669 0 00.665.664.669.669 0 00.663-.664.669.669 0 00-.664-.665zm-2.716-6.557a.668.668 0 00-.664.664.667.667 0 00.664.664.666.666 0 00.665-.664.67.67 0 00-.195-.47.669.669 0 00-.47-.194zm19.018.194a.668.668 0 00-1.133.47.668.668 0 00.663.664.67.67 0 00.47-.195.67.67 0 00.194-.47.67.67 0 00-.195-.469zM.664 23.733a.669.669 0 00-.47.194.67.67 0 00-.194.47.67.67 0 00.195.47.67.67 0 00.47.195.669.669 0 00.468-.195.67.67 0 00.195-.47.67.67 0 00-.195-.47.668.668 0 00-.469-.194z"/><path d="M30.314 18.117a.664.664 0 00.447-.826 9.963 9.963 0 00-6.704-6.69.664.664 0 10-.376 1.274 8.576 8.576 0 015.807 5.795.664.664 0 00.826.447z"/></g><defs><clipPath id="clip0_669_850"><path fill="#fff" transform="translate(0 .03)" d="M0 0h34v34H0z"/></clipPath></defs></svg>
